icons/op-inbox-24.svg

<svg width="24" height="24" viewBox="0 0 24 24" fill="none" xmlns="http://www.w3.org/2000/svg">
<path d="M4 7.42857C4 6.51926 4.36122 5.64719 5.00421 5.00421C5.64719 4.36122 6.51926 4 7.42857 4H16.5714C17.4807 4 18.3528 4.36122 18.9958 5.00421C19.6388 5.64719 20 6.51926 20 7.42857V16.5714C20 17.4807 19.6388 18.3528 18.9958 18.9958C18.3528 19.6388 17.4807 20 16.5714 20H7.42857C6.51926 20 5.64719 19.6388 5.00421 18.9958C4.36122 18.3528 4 17.4807 4 16.5714V7.42857ZM5.14286 12H9.14286C9.29441 12 9.43975 12.0602 9.54692 12.1674C9.65408 12.2745 9.71429 12.4199 9.71429 12.5714V12.584L9.71886 12.6526C9.74488 13.0319 9.84424 13.4025 10.0114 13.744C10.1554 14.0343 10.3634 14.3063 10.6651 14.5063C10.9623 14.7051 11.3851 14.8571 12 14.8571C12.6137 14.8571 13.0366 14.7051 13.3349 14.5063C13.6366 14.3063 13.8446 14.0343 13.9886 13.744C14.1662 13.3818 14.2674 12.987 14.2857 12.584V12.5691C14.2863 12.418 14.3468 12.2732 14.4539 12.1666C14.561 12.0599 14.706 12 14.8571 12H18.8571V7.42857C18.8571 6.82236 18.6163 6.24098 18.1877 5.81233C17.759 5.38367 17.1776 5.14286 16.5714 5.14286H7.42857C6.82236 5.14286 6.24098 5.38367 5.81233 5.81233C5.38367 6.24098 5.14286 6.82236 5.14286 7.42857V12Z" fill="black"/>
</svg>

<svg xmlns="http://www.w3.org/2000/svg" width="24" height="24" viewBox="0 0 24 24"><path d="M4 7.429A3.429 3.429 0 0 1 7.429 4h9.142A3.429 3.429 0 0 1 20 7.429v9.142A3.429 3.429 0 0 1 16.571 20H7.429A3.429 3.429 0 0 1 4 16.571V7.429ZM5.143 12h4a.572.572 0 0 1 .571.571v.013l.005.069c.026.379.125.749.292 1.091.144.29.352.562.654.762.297.199.72.351 1.335.351.614 0 1.037-.152 1.335-.351.302-.2.51-.472.654-.762.177-.362.278-.757.297-1.16v-.015a.57.57 0 0 1 .571-.569h4V7.429c0-.607-.241-1.188-.669-1.617a2.289 2.289 0 0 0-1.617-.669H7.429c-.607 0-1.188.241-1.617.669a2.289 2.289 0 0 0-.669 1.617V12Z"/></svg>
